pp/airplane_print.svg

<svg viewBox="0 0 20 20" fill="none" xmlns="http://www.w3.org/2000/svg" height="1em" width="1em">
  <g opacity="0.8">
    <path d="M11.2237 13.805C11.4794 15.6396 11.5923 16.7828 11.5624 17.2854C11.5159 18.0655 10.9931 18.8865 10.0279 19.7822C9.75347 20.0369 9.30689 19.9108 9.20619 19.5502L7.87106 14.7706L7.27107 14.1706L2.49144 12.8355C2.13092 12.7348 2.00483 12.2882 2.25945 12.0138C3.15519 11.0485 3.97614 10.5258 4.75628 10.4793C5.25901 10.4494 6.40254 10.5624 8.23783 10.8181L10.6694 8.16575L4.61552 6.47431C4.25502 6.37359 4.12895 5.92703 4.38355 5.65265C5.76919 4.15943 7.02217 3.36158 8.17652 3.29293C9.06242 3.24023 10.9254 3.70483 13.8567 4.68935L14.3016 4.20455C16.3494 2.15809 18.0349 1.59992 19.2388 2.80381C20.4427 4.00777 19.8842 5.69305 17.8214 7.75516L17.3524 8.1852C18.3369 11.1164 18.8014 12.9793 18.7488 13.8652C18.6801 15.0195 17.8823 16.2725 16.389 17.6581C16.1147 17.9127 15.6681 17.7867 15.5674 17.4262L13.8761 11.3729L11.2237 13.805Z" fill="currentColor"/>
  </g>
  <path fill-rule="evenodd" clip-rule="evenodd" d="M10.5624 16.2854C10.5923 15.7828 10.4794 14.6396 10.2237 12.805L12.8761 10.3729L14.5674 16.4262C14.6681 16.7867 15.1147 16.9127 15.389 16.6581C16.8823 15.2725 17.6801 14.0195 17.7488 12.8652C17.8014 11.9793 17.3369 10.1164 16.3524 7.1852L16.8214 6.75516C18.8842 4.69305 19.4427 3.00777 18.2388 1.80381C17.0349 0.59992 15.3494 1.15809 13.3016 3.20455L12.8567 3.68935C9.92541 2.70483 8.06242 2.24023 7.17652 2.29293C6.02218 2.36158 4.76919 3.15943 3.38355 4.65265C3.12895 4.92703 3.25502 5.37359 3.61552 5.47431L9.66945 7.16575L7.23783 9.81814C5.40254 9.56238 4.25901 9.44939 3.75628 9.47932C2.97614 9.52577 2.15519 10.0485 1.25945 11.0138C1.00483 11.2882 1.13092 11.7348 1.49144 11.8355L6.27107 13.1706L6.87106 13.7706L8.20619 18.5502C8.30689 18.9108 8.75347 19.0369 9.02786 18.7822C9.99314 17.8865 10.5159 17.0655 10.5624 16.2854ZM9.19693 12.6843C9.46746 14.5947 9.58981 15.7947 9.56413 16.226C9.54433 16.5585 9.33872 16.9682 8.93509 17.4427L7.79891 13.3753C7.77578 13.2925 7.73169 13.217 7.6709 13.1562L6.88545 12.3708C6.82466 12.31 6.74922 12.2659 6.66642 12.2428L2.599 11.1066C3.07353 10.703 3.4832 10.4974 3.81571 10.4776C4.24707 10.4519 5.44749 10.5743 7.35857 10.8449C7.52176 10.868 7.68586 10.8092 7.79724 10.6877L10.9569 7.24122C11.2089 6.96629 11.0821 6.52215 10.7229 6.42178L4.70117 4.73934C5.68001 3.80916 6.53157 3.33305 7.23589 3.29116C7.96978 3.24751 9.87294 3.73165 12.8443 4.74065C13.032 4.80439 13.2397 4.75121 13.3736 4.60508L14.0236 3.8961C15.7159 2.20551 16.8505 1.82978 17.5317 2.51091C18.2127 3.19197 17.8368 4.32621 16.1299 6.03309L15.4366 6.66821C15.2905 6.80217 15.2373 7.0098 15.3011 7.1975C16.31 10.1688 16.7942 12.0719 16.7505 12.8058C16.7086 13.5101 16.2325 14.3617 15.3023 15.3405L13.6201 9.31934C13.5197 8.96009 13.0755 8.83327 12.8006 9.08536L9.35407 12.2457C9.23261 12.3571 9.17383 12.5212 9.19693 12.6843Z" fill="black"/>
</svg>

<svg viewBox="0 0 20 20" fill="none" xmlns="http://www.w3.org/2000/svg" height="1em" width="1em">
  <path d="M11.224 13.805c.255 1.835.368 2.978.338 3.48-.046.78-.569 1.602-1.534 2.497a.5.5 0 0 1-.822-.232l-1.335-4.78-.6-.6-4.78-1.335a.5.5 0 0 1-.232-.821c.896-.965 1.717-1.488 2.497-1.535.503-.03 1.647.083 3.482.34l2.431-2.653-6.053-1.692a.5.5 0 0 1-.232-.821c1.385-1.494 2.638-2.291 3.793-2.36.885-.053 2.748.412 5.68 1.396l.445-.484c2.047-2.047 3.733-2.605 4.937-1.401 1.204 1.204.645 2.89-1.418 4.951l-.469.43c.985 2.931 1.45 4.794 1.397 5.68-.069 1.155-.867 2.408-2.36 3.793a.5.5 0 0 1-.822-.232l-1.69-6.053-2.653 2.432Z" fill="currentColor" opacity=".8"/>
  <path fill-rule="evenodd" clip-rule="evenodd" d="M10.562 16.285c.03-.502-.083-1.645-.338-3.48l2.652-2.432 1.691 6.053a.5.5 0 0 0 .822.232c1.493-1.386 2.291-2.639 2.36-3.793.052-.886-.412-2.749-1.397-5.68l.47-.43c2.062-2.062 2.62-3.747 1.417-4.951-1.204-1.204-2.89-.646-4.937 1.4l-.445.485c-2.932-.984-4.795-1.449-5.68-1.396-1.155.069-2.408.866-3.793 2.36a.5.5 0 0 0 .232.821l6.053 1.692-2.431 2.652c-1.835-.256-2.979-.369-3.482-.339-.78.047-1.6.57-2.497 1.535a.5.5 0 0 0 .232.822l4.78 1.335.6.6 1.335 4.78a.5.5 0 0 0 .822.231c.965-.895 1.488-1.716 1.534-2.497Zm-1.365-3.6c.27 1.91.393 3.11.367 3.541-.02.332-.225.742-.629 1.217L7.8 13.375a.5.5 0 0 0-.128-.219l-.786-.785a.5.5 0 0 0-.219-.128L2.6 11.107c.475-.404.884-.61 1.217-.63.431-.025 1.631.097 3.543.368a.5.5 0 0 0 .438-.157l3.16-3.447a.5.5 0 0 0-.234-.82L4.7 4.74c.979-.93 1.83-1.406 2.535-1.448.734-.043 2.637.44 5.608 1.45a.5.5 0 0 0 .53-.136l.65-.709c1.692-1.69 2.827-2.066 3.508-1.385.68.681.305 1.815-1.402 3.522l-.693.635a.5.5 0 0 0-.136.53c1.009 2.97 1.493 4.874 1.45 5.608-.042.704-.518 1.556-1.449 2.535L13.62 9.319a.5.5 0 0 0-.82-.234l-3.446 3.16a.5.5 0 0 0-.157.44Z" fill="#000"/>
</svg>
